cssgg/arrow-right-o.svg

<svg
  width="24"
  height="24"
  viewBox="0 0 24 24"
  fill="none"
  xmlns="http://www.w3.org/2000/svg"
>
  <path
    d="M12.0519 14.8285L13.4661 16.2427L17.7088 12L13.4661 7.7574L12.0519 9.17161L13.8804 11H6.34321V13H13.8803L12.0519 14.8285Z"
    fill="currentColor"
  />
  <path
    fill-rule="evenodd"
    clip-rule="evenodd"
    d="M19.7782 19.7782C24.0739 15.4824 24.0739 8.51759 19.7782 4.22183C15.4824 -0.0739417 8.51759 -0.0739417 4.22183 4.22183C-0.0739417 8.51759 -0.0739417 15.4824 4.22183 19.7782C8.51759 24.0739 15.4824 24.0739 19.7782 19.7782ZM18.364 18.364C21.8787 14.8492 21.8787 9.15076 18.364 5.63604C14.8492 2.12132 9.15076 2.12132 5.63604 5.63604C2.12132 9.15076 2.12132 14.8492 5.63604 18.364C9.15076 21.8787 14.8492 21.8787 18.364 18.364Z"
    fill="currentColor"
  />
</svg>

<svg viewBox="0 0 24 24" xmlns="http://www.w3.org/2000/svg"><g><path d="M12.05 14.82l1.41 1.41 4.24-4.25 -4.25-4.25 -1.42 1.41 1.82 1.82H6.31v2h7.53l-1.83 1.82Z"/><path fill-rule="evenodd" d="M19.77 19.77c4.29-4.3 4.29-11.27 0-15.56C15.47-.09 8.5-.09 4.21 4.2c-4.3 4.29-4.3 11.26-.001 15.55 4.29 4.29 11.26 4.29 15.55 0Zm-1.42-1.42c3.51-3.52 3.51-9.22 0-12.73C14.83 2.1 9.13 2.1 5.62 5.61 2.1 9.12 2.1 14.829 5.61 18.33c3.51 3.51 9.21 3.51 12.72 0Z"/></g></svg>
